images/qtum.svg

<svg height="250" viewBox="0 0 250 250" width="250" xmlns="http://www.w3.org/2000/svg"><g fill="#2e9ad0"><path d="m151.546875 242.234375h-68.730469l-55.453125-44.992187-21.136719-72.671876 21.089844-72.667968 55.457032-44.992188h68.773437l55.453125 44.992188 21.089844 72.667968-21.089844 72.671876-.773438.855468zm-67.183594-5.234375h65.636719l53.136719-43.230469 20.316406-69.199219-20.316406-69.195312-53.136719-43.230469h-65.636719l-53.089843 43.230469-20.320313 69.195312 20.320313 69.199219zm0 0"/><path d="m235.953125 230.105469-32.042969-32.007813-31.273437-12.984375-55.453125 7.800781-56.230469-7.800781-31.269531 12.984375-1.546875-5.183594 32-13.839843h.816406l56.230469 8.65625 56.269531-8.65625.773437.855469 32.820313 13.839843 32 32.863281zm0 0"/><path d="m150 244.800781-32.816406-50.175781-34.367188 50.175781-25-61.398437 4.683594-2.617188 21.863281 53.648438 32.820313-49.320313 32.042968 49.320313 21.863282-53.648438 29.683594-65.722656 7.042968 80.417969h-4.679687l-5.5-61.398438-21.863281 49.320313zm0 0"/><path d="m9.363281 121.957031h217.183594v5.183594h-217.183594zm0 0"/><path d="m200.773438 134.082031-27.320313-59.683593-23.453125 56.214843-32.816406-64.871093-33.59375 64.871093-23.453125-56.214843-27.320313 59.683593-6.269531-79.5625 4.726563-.855469 4.679687 62.253907 24.183594-52.742188 23.453125 56.210938 33.59375-64.011719 32.042968 64.011719 24.226563-56.210938 24.183594 51.886719 3.910156-61.398438h4.726563zm0 0"/><path d="m171.089844 70.070312-21.863282-54.503906-32.042968 50.175782-32.820313-50.175782-21.863281 54.503906-3.910156-2.566406 24.226562-62.304687 34.367188 51.03125 32.816406-51.03125 25.773438 62.304687zm32.046875 125.410157-5.5-61.398438-24.183594 53.648438-24.226563-57.117188-32.042968 64.867188-33.59375-64.867188-23.453125 57.117188-24.183594-53.648438-4.679687 61.398438h-4.726563l6.269531-80.417969 27.320313 60.539062 23.453125-56.214843 33.59375 64.871093 32.816406-64.871093 23.453125 57.070312 27.320313-61.394531 7.042968 80.417969zm0 0"/><path d="m173.453125 71.832031-57.042969-8.65625-56.273437 8.65625-32-15.601562 1.546875-5.183594 31.269531 14.695313 55.457031-7.75 57.042969 7.75 30.457031-14.695313 2.363282 5.183594zm0 0"/><path d="m92.953125 239.617188c0 5.726562-4.191406 10.367187-9.363281 10.367187s-9.363282-4.640625-9.363282-10.367187c0-5.726563 4.191407-10.367188 9.363282-10.367188s9.363281 4.640625 9.363281 10.367188zm0 0"/><path d="m158.589844 239.617188c0 5.726562-4.191406 10.367187-9.363282 10.367187-5.171874 0-9.363281-4.640625-9.363281-10.367187 0-5.726563 4.191407-10.367188 9.363281-10.367188 5.171876 0 9.363282 4.640625 9.363282 10.367188zm0 0"/><path d="m92.953125 10.382812c0 5.726563-4.191406 10.367188-9.363281 10.367188s-9.363282-4.640625-9.363282-10.367188c0-5.726562 4.191407-10.367187 9.363282-10.367187s9.363281 4.640625 9.363281 10.367187zm0 0"/><path d="m158.589844 10.382812c0 5.726563-4.191406 10.367188-9.363282 10.367188-5.171874 0-9.363281-4.640625-9.363281-10.367188 0-5.726562 4.191407-10.367187 9.363281-10.367187 5.171876 0 9.363282 4.640625 9.363282 10.367187zm0 0"/><path d="m213.273438 53.664062c0 5.722657-4.191407 10.367188-9.363282 10.367188s-9.363281-4.644531-9.363281-10.367188c0-5.726562 4.191406-10.367187 9.363281-10.367187s9.363282 4.640625 9.363282 10.367187zm0 0"/><path d="m38.273438 53.664062c0 5.722657-4.191407 10.367188-9.363282 10.367188s-9.363281-4.644531-9.363281-10.367188c0-5.726562 4.191406-10.367187 9.363281-10.367187s9.363282 4.640625 9.363282 10.367187zm0 0"/><path d="m38.273438 196.386719c0 5.726562-4.191407 10.367187-9.363282 10.367187s-9.363281-4.640625-9.363281-10.367187c0-5.726563 4.191406-10.367188 9.363281-10.367188s9.363282 4.640625 9.363282 10.367188zm0 0"/><path d="m18.726562 124.570312c0 5.726563-4.191406 10.367188-9.363281 10.367188s-9.363281-4.640625-9.363281-10.367188c0-5.722656 4.191406-10.367187 9.363281-10.367187s9.363281 4.644531 9.363281 10.367187zm0 0"/><path d="m235.136719 124.570312c0 5.726563-4.191407 10.367188-9.363281 10.367188-5.171876 0-9.363282-4.640625-9.363282-10.367188 0-5.722656 4.191406-10.367187 9.363282-10.367187 5.171874 0 9.363281 4.644531 9.363281 10.367187zm0 0"/><path d="m208.589844 124.570312c0 5.726563-4.191406 10.367188-9.363282 10.367188-5.171874 0-9.363281-4.640625-9.363281-10.367188 0-5.722656 4.191407-10.367187 9.363281-10.367187 5.171876 0 9.363282 4.644531 9.363282 10.367187zm0 0"/><path d="m43.726562 124.570312c0 5.726563-4.191406 10.367188-9.363281 10.367188s-9.363281-4.640625-9.363281-10.367188c0-5.722656 4.191406-10.367187 9.363281-10.367187s9.363281 4.644531 9.363281 10.367187zm0 0"/><path d="m92.953125 124.570312c0 5.726563-4.191406 10.367188-9.363281 10.367188s-9.363282-4.640625-9.363282-10.367188c0-5.722656 4.191407-10.367187 9.363282-10.367187s9.363281 4.644531 9.363281 10.367187zm0 0"/><path d="m158.589844 124.570312c0 5.726563-4.191406 10.367188-9.363282 10.367188-5.171874 0-9.363281-4.640625-9.363281-10.367188 0-5.722656 4.191407-10.367187 9.363281-10.367187 5.171876 0 9.363282 4.644531 9.363282 10.367187zm0 0"/><path d="m118.683594 50.335938c5.105468.917968 8.570312 6.242187 7.742187 11.894531-.828125 5.648437-5.636719 9.488281-10.742187 8.570312-5.105469-.917969-8.570313-6.242187-7.742188-11.894531s5.636719-9.488281 10.742188-8.570312zm0 0"/><path d="m69.5 69.214844c0 5.722656-4.191406 10.367187-9.363281 10.367187s-9.363281-4.644531-9.363281-10.367187c0-5.726563 4.191406-10.367188 9.363281-10.367188s9.363281 4.640625 9.363281 10.367188zm0 0"/><path d="m182.816406 69.214844c0 5.722656-4.191406 10.367187-9.363281 10.367187s-9.363281-4.644531-9.363281-10.367187c0-5.726563 4.191406-10.367188 9.363281-10.367188s9.363281 4.640625 9.363281 10.367188zm0 0"/><path d="m126.546875 190.296875c0 5.726563-4.195313 10.367187-9.363281 10.367187-5.171875 0-9.367188-4.640624-9.367188-10.367187 0-5.722656 4.195313-10.367187 9.367188-10.367187 5.167968 0 9.363281 4.644531 9.363281 10.367187zm0 0"/><path d="m69.5 181.640625c0 5.726563-4.191406 10.367187-9.363281 10.367187s-9.363281-4.640624-9.363281-10.367187c0-5.722656 4.191406-10.367187 9.363281-10.367187s9.363281 4.644531 9.363281 10.367187zm0 0"/><path d="m182.816406 181.640625c0 5.726563-4.191406 10.367187-9.363281 10.367187s-9.363281-4.640624-9.363281-10.367187c0-5.722656 4.191406-10.367187 9.363281-10.367187s9.363281 4.644531 9.363281 10.367187zm0 0"/><path d="m250 228.394531c0 7.644531-5.597656 13.839844-12.5 13.839844s-12.5-6.195313-12.5-13.839844 5.597656-13.839843 12.5-13.839843 12.5 6.195312 12.5 13.839843zm0 0"/></g></svg>

<svg xmlns="http://www.w3.org/2000/svg" xmlns:xlink="http://www.w3.org/1999/xlink" width="250px" height="250px" viewBox="0 0 250 250" version="1.1">
<g id="surface1">
<path style=" stroke:none;fill-rule:nonzero;fill:rgb(18.039216%,60.392159%,81.568629%);fill-opacity:1;" d="M 151.546875 242.234375 L 82.816406 242.234375 L 27.363281 197.242188 L 6.226562 124.570312 L 27.316406 51.902344 L 82.773438 6.910156 L 151.546875 6.910156 L 207 51.902344 L 228.089844 124.570312 L 207 197.242188 L 206.226562 198.097656 Z M 84.363281 237 L 150 237 L 203.136719 193.769531 L 223.453125 124.570312 L 203.136719 55.375 L 150 12.144531 L 84.363281 12.144531 L 31.273438 55.375 L 10.953125 124.570312 L 31.273438 193.769531 Z M 84.363281 237 "/>
<path style=" stroke:none;fill-rule:nonzero;fill:rgb(18.039216%,60.392159%,81.568629%);fill-opacity:1;" d="M 235.953125 230.105469 L 203.910156 198.097656 L 172.636719 185.113281 L 117.183594 192.914062 L 60.953125 185.113281 L 29.683594 198.097656 L 28.136719 192.914062 L 60.136719 179.074219 L 60.953125 179.074219 L 117.183594 187.730469 L 173.453125 179.074219 L 174.226562 179.929688 L 207.046875 193.769531 L 239.046875 226.632812 Z M 235.953125 230.105469 "/>
<path style=" stroke:none;fill-rule:nonzero;fill:rgb(18.039216%,60.392159%,81.568629%);fill-opacity:1;" d="M 150 244.800781 L 117.183594 194.625 L 82.816406 244.800781 L 57.816406 183.402344 L 62.5 180.785156 L 84.363281 234.433594 L 117.183594 185.113281 L 149.226562 234.433594 L 171.089844 180.785156 L 200.773438 115.0625 L 207.816406 195.480469 L 203.136719 195.480469 L 197.636719 134.082031 L 175.773438 183.402344 Z M 150 244.800781 "/>
<path style=" stroke:none;fill-rule:nonzero;fill:rgb(18.039216%,60.392159%,81.568629%);fill-opacity:1;" d="M 9.363281 121.957031 L 226.546875 121.957031 L 226.546875 127.140625 L 9.363281 127.140625 Z M 9.363281 121.957031 "/>
<path style=" stroke:none;fill-rule:nonzero;fill:rgb(18.039216%,60.392159%,81.568629%);fill-opacity:1;" d="M 200.773438 134.082031 L 173.453125 74.398438 L 150 130.613281 L 117.183594 65.742188 L 83.589844 130.613281 L 60.136719 74.398438 L 32.816406 134.082031 L 26.546875 54.519531 L 31.273438 53.664062 L 35.953125 115.917969 L 60.136719 63.175781 L 83.589844 119.386719 L 117.183594 55.375 L 149.226562 119.386719 L 173.453125 63.175781 L 197.636719 115.0625 L 201.546875 53.664062 L 206.273438 53.664062 Z M 200.773438 134.082031 "/>
<path style=" stroke:none;fill-rule:nonzero;fill:rgb(18.039216%,60.392159%,81.568629%);fill-opacity:1;" d="M 171.089844 70.070312 L 149.226562 15.566406 L 117.183594 65.742188 L 84.363281 15.566406 L 62.5 70.070312 L 58.589844 67.503906 L 82.816406 5.199219 L 117.183594 56.230469 L 150 5.199219 L 175.773438 67.503906 Z M 203.136719 195.480469 L 197.636719 134.082031 L 173.453125 187.730469 L 149.226562 130.613281 L 117.183594 195.480469 L 83.589844 130.613281 L 60.136719 187.730469 L 35.953125 134.082031 L 31.273438 195.480469 L 26.546875 195.480469 L 32.816406 115.0625 L 60.136719 175.601562 L 83.589844 119.386719 L 117.183594 184.257812 L 150 119.386719 L 173.453125 176.457031 L 200.773438 115.0625 L 207.816406 195.480469 Z M 203.136719 195.480469 "/>
<path style=" stroke:none;fill-rule:nonzero;fill:rgb(18.039216%,60.392159%,81.568629%);fill-opacity:1;" d="M 173.453125 71.832031 L 116.410156 63.175781 L 60.136719 71.832031 L 28.136719 56.230469 L 29.683594 51.046875 L 60.953125 65.742188 L 116.410156 57.992188 L 173.453125 65.742188 L 203.910156 51.046875 L 206.273438 56.230469 Z M 173.453125 71.832031 "/>
<path style=" stroke:none;fill-rule:nonzero;fill:rgb(18.039216%,60.392159%,81.568629%);fill-opacity:1;" d="M 92.953125 239.617188 C 92.953125 245.34375 88.761719 249.984375 83.589844 249.984375 C 78.417969 249.984375 74.226562 245.34375 74.226562 239.617188 C 74.226562 233.890625 78.417969 229.25 83.589844 229.25 C 88.761719 229.25 92.953125 233.890625 92.953125 239.617188 Z M 92.953125 239.617188 "/>
<path style=" stroke:none;fill-rule:nonzero;fill:rgb(18.039216%,60.392159%,81.568629%);fill-opacity:1;" d="M 158.589844 239.617188 C 158.589844 245.34375 154.398438 249.984375 149.226562 249.984375 C 144.054688 249.984375 139.863281 245.34375 139.863281 239.617188 C 139.863281 233.890625 144.054688 229.25 149.226562 229.25 C 154.398438 229.25 158.589844 233.890625 158.589844 239.617188 Z M 158.589844 239.617188 "/>
<path style=" stroke:none;fill-rule:nonzero;fill:rgb(18.039216%,60.392159%,81.568629%);fill-opacity:1;" d="M 92.953125 10.382812 C 92.953125 16.109375 88.761719 20.75 83.589844 20.75 C 78.417969 20.75 74.226562 16.109375 74.226562 10.382812 C 74.226562 4.65625 78.417969 0.015625 83.589844 0.015625 C 88.761719 0.015625 92.953125 4.65625 92.953125 10.382812 Z M 92.953125 10.382812 "/>
<path style=" stroke:none;fill-rule:nonzero;fill:rgb(18.039216%,60.392159%,81.568629%);fill-opacity:1;" d="M 158.589844 10.382812 C 158.589844 16.109375 154.398438 20.75 149.226562 20.75 C 144.054688 20.75 139.863281 16.109375 139.863281 10.382812 C 139.863281 4.65625 144.054688 0.015625 149.226562 0.015625 C 154.398438 0.015625 158.589844 4.65625 158.589844 10.382812 Z M 158.589844 10.382812 "/>
<path style=" stroke:none;fill-rule:nonzero;fill:rgb(18.039216%,60.392159%,81.568629%);fill-opacity:1;" d="M 213.273438 53.664062 C 213.273438 59.386719 209.082031 64.03125 203.910156 64.03125 C 198.738281 64.03125 194.546875 59.386719 194.546875 53.664062 C 194.546875 47.9375 198.738281 43.296875 203.910156 43.296875 C 209.082031 43.296875 213.273438 47.9375 213.273438 53.664062 Z M 213.273438 53.664062 "/>
<path style=" stroke:none;fill-rule:nonzero;fill:rgb(18.039216%,60.392159%,81.568629%);fill-opacity:1;" d="M 38.273438 53.664062 C 38.273438 59.386719 34.082031 64.03125 28.910156 64.03125 C 23.738281 64.03125 19.546875 59.386719 19.546875 53.664062 C 19.546875 47.9375 23.738281 43.296875 28.910156 43.296875 C 34.082031 43.296875 38.273438 47.9375 38.273438 53.664062 Z M 38.273438 53.664062 "/>
<path style=" stroke:none;fill-rule:nonzero;fill:rgb(18.039216%,60.392159%,81.568629%);fill-opacity:1;" d="M 38.273438 196.386719 C 38.273438 202.113281 34.082031 206.753906 28.910156 206.753906 C 23.738281 206.753906 19.546875 202.113281 19.546875 196.386719 C 19.546875 190.660156 23.738281 186.019531 28.910156 186.019531 C 34.082031 186.019531 38.273438 190.660156 38.273438 196.386719 Z M 38.273438 196.386719 "/>
<path style=" stroke:none;fill-rule:nonzero;fill:rgb(18.039216%,60.392159%,81.568629%);fill-opacity:1;" d="M 18.726562 124.570312 C 18.726562 130.296875 14.535156 134.9375 9.363281 134.9375 C 4.191406 134.9375 0 130.296875 0 124.570312 C 0 118.847656 4.191406 114.203125 9.363281 114.203125 C 14.535156 114.203125 18.726562 118.847656 18.726562 124.570312 Z M 18.726562 124.570312 "/>
<path style=" stroke:none;fill-rule:nonzero;fill:rgb(18.039216%,60.392159%,81.568629%);fill-opacity:1;" d="M 235.136719 124.570312 C 235.136719 130.296875 230.945312 134.9375 225.773438 134.9375 C 220.601562 134.9375 216.410156 130.296875 216.410156 124.570312 C 216.410156 118.847656 220.601562 114.203125 225.773438 114.203125 C 230.945312 114.203125 235.136719 118.847656 235.136719 124.570312 Z M 235.136719 124.570312 "/>
<path style=" stroke:none;fill-rule:nonzero;fill:rgb(18.039216%,60.392159%,81.568629%);fill-opacity:1;" d="M 208.589844 124.570312 C 208.589844 130.296875 204.398438 134.9375 199.226562 134.9375 C 194.054688 134.9375 189.863281 130.296875 189.863281 124.570312 C 189.863281 118.847656 194.054688 114.203125 199.226562 114.203125 C 204.398438 114.203125 208.589844 118.847656 208.589844 124.570312 Z M 208.589844 124.570312 "/>
<path style=" stroke:none;fill-rule:nonzero;fill:rgb(18.039216%,60.392159%,81.568629%);fill-opacity:1;" d="M 43.726562 124.570312 C 43.726562 130.296875 39.535156 134.9375 34.363281 134.9375 C 29.191406 134.9375 25 130.296875 25 124.570312 C 25 118.847656 29.191406 114.203125 34.363281 114.203125 C 39.535156 114.203125 43.726562 118.847656 43.726562 124.570312 Z M 43.726562 124.570312 "/>
<path style=" stroke:none;fill-rule:nonzero;fill:rgb(18.039216%,60.392159%,81.568629%);fill-opacity:1;" d="M 92.953125 124.570312 C 92.953125 130.296875 88.761719 134.9375 83.589844 134.9375 C 78.417969 134.9375 74.226562 130.296875 74.226562 124.570312 C 74.226562 118.847656 78.417969 114.203125 83.589844 114.203125 C 88.761719 114.203125 92.953125 118.847656 92.953125 124.570312 Z M 92.953125 124.570312 "/>
<path style=" stroke:none;fill-rule:nonzero;fill:rgb(18.039216%,60.392159%,81.568629%);fill-opacity:1;" d="M 158.589844 124.570312 C 158.589844 130.296875 154.398438 134.9375 149.226562 134.9375 C 144.054688 134.9375 139.863281 130.296875 139.863281 124.570312 C 139.863281 118.847656 144.054688 114.203125 149.226562 114.203125 C 154.398438 114.203125 158.589844 118.847656 158.589844 124.570312 Z M 158.589844 124.570312 "/>
<path style=" stroke:none;fill-rule:nonzero;fill:rgb(18.039216%,60.392159%,81.568629%);fill-opacity:1;" d="M 118.683594 50.335938 C 123.789062 51.253906 127.253906 56.578125 126.425781 62.230469 C 125.597656 67.878906 120.789062 71.71875 115.683594 70.800781 C 110.578125 69.882812 107.113281 64.558594 107.941406 58.90625 C 108.769531 53.253906 113.578125 49.417969 118.683594 50.335938 Z M 118.683594 50.335938 "/>
<path style=" stroke:none;fill-rule:nonzero;fill:rgb(18.039216%,60.392159%,81.568629%);fill-opacity:1;" d="M 69.5 69.214844 C 69.5 74.9375 65.308594 79.582031 60.136719 79.582031 C 54.964844 79.582031 50.773438 74.9375 50.773438 69.214844 C 50.773438 63.488281 54.964844 58.847656 60.136719 58.847656 C 65.308594 58.847656 69.5 63.488281 69.5 69.214844 Z M 69.5 69.214844 "/>
<path style=" stroke:none;fill-rule:nonzero;fill:rgb(18.039216%,60.392159%,81.568629%);fill-opacity:1;" d="M 182.816406 69.214844 C 182.816406 74.9375 178.625 79.582031 173.453125 79.582031 C 168.28125 79.582031 164.089844 74.9375 164.089844 69.214844 C 164.089844 63.488281 168.28125 58.847656 173.453125 58.847656 C 178.625 58.847656 182.816406 63.488281 182.816406 69.214844 Z M 182.816406 69.214844 "/>
<path style=" stroke:none;fill-rule:nonzero;fill:rgb(18.039216%,60.392159%,81.568629%);fill-opacity:1;" d="M 126.546875 190.296875 C 126.546875 196.023438 122.351562 200.664062 117.183594 200.664062 C 112.011719 200.664062 107.816406 196.023438 107.816406 190.296875 C 107.816406 184.574219 112.011719 179.929688 117.183594 179.929688 C 122.351562 179.929688 126.546875 184.574219 126.546875 190.296875 Z M 126.546875 190.296875 "/>
<path style=" stroke:none;fill-rule:nonzero;fill:rgb(18.039216%,60.392159%,81.568629%);fill-opacity:1;" d="M 69.5 181.640625 C 69.5 187.367188 65.308594 192.007812 60.136719 192.007812 C 54.964844 192.007812 50.773438 187.367188 50.773438 181.640625 C 50.773438 175.917969 54.964844 171.273438 60.136719 171.273438 C 65.308594 171.273438 69.5 175.917969 69.5 181.640625 Z M 69.5 181.640625 "/>
<path style=" stroke:none;fill-rule:nonzero;fill:rgb(18.039216%,60.392159%,81.568629%);fill-opacity:1;" d="M 182.816406 181.640625 C 182.816406 187.367188 178.625 192.007812 173.453125 192.007812 C 168.28125 192.007812 164.089844 187.367188 164.089844 181.640625 C 164.089844 175.917969 168.28125 171.273438 173.453125 171.273438 C 178.625 171.273438 182.816406 175.917969 182.816406 181.640625 Z M 182.816406 181.640625 "/>
<path style=" stroke:none;fill-rule:nonzero;fill:rgb(18.039216%,60.392159%,81.568629%);fill-opacity:1;" d="M 250 228.394531 C 250 236.039062 244.402344 242.234375 237.5 242.234375 C 230.597656 242.234375 225 236.039062 225 228.394531 C 225 220.75 230.597656 214.554688 237.5 214.554688 C 244.402344 214.554688 250 220.75 250 228.394531 Z M 250 228.394531 "/>
</g>
</svg>
